X: 39333
T: Tam Lin
R: reel
M: 4/4
K: Edorian
EF|:G2FG EG (3FED|B,=CEC GCEC|D2FD ADFA|GEED ~E3F|
G2FG EG (3FED|B,=CEC GCEC|D2FD ADFD|1 GBAF GEEF:|2 GBAF GEGB||
|:eB~B2 GBFB|EBFB GABc|dA~A2 ~d3e|fd (3fga gfed|
eB~B2 GBFB|EBFB GFEB,|=CB,CD EDEF|1 GBAF GEGB:|2 GB (3AGF GBef||
|:ge~e2 BAGF|EFGA Bcde|fd~d2 fdad|fdfa bagf|
~g3a bagf|gfed BGEB,|=CB,CD EDEF|1 GB (3AGF GBef:|2 GBAF GEEF||

